X: 1
T: Cooley's
M: 4/4
L: 1/8
R: reel
K: Emin
V:1 clef=treble
|:D2|EB{c}BA B2 EB|~B2 AB dBAG|FDAD BDAD|FDAD dAFD|
EBBA B2 EB|B2 AB defg|afe^c dBAF|DEFD E2:|
|:gf|eB B2 efge|eB B2 gedB|A2 FA DAFA|A2 FA defg|
eB B2 eBgB|eB B2 defg|afe^c dBAF|DEFD E2:|
V:2 clef=bass
|: z2|E,,8| E,,8| D,,8| D,,8|
E,,8| E,,8 | D,,8 | D,,4 E,,2:|
|: z2|E,,8| E,,8| D,,8| D,,8|
E,,8| E,,8 | D,,8 | D,,4 E,,2:|